X:635
T:Miss Grant of Kinaird
R:Reel
B:The Athole Collection
M:C|
L:1/8
K:D Minor
A|FEFD FAd=B|cGAF Ec GE|FEFD FAd=B|cGEA FDD:|
A|d^cdf Adfd|ceGc ECGc|d^cdf Adfd|cAGE FDDA|d^cdf Adfd|
ceGc ECGE|FAGB Adfd|cAGE FDD||

